X:468490
T: Glasgow City Police Pipers
H:
C: P/M Donald MacLeod, MBE
B: Scots Guards I, https://thesession.org/tunes/1181
O:Kevin Fraser
Z:Kevin Fraser
Q:3/8=120
K:HP
M:6/8
L:1/8
R:Jig
U: R = ///
U: r = //
U: V = !accent!
V:M gstem=up stem=down name="Melody"
V:H gstem=up stem=down name="Harmony"
V:C gstem=up stem=down name="C-Harmony"
V:S gstem=up stem=down dyn=up stafflines=1 clef=perc middle=G name="Snare" sname="Snare"
V:B gstem=up stem=down clef=none dyn=up name="Bass"
V:T gstem=up stem=down clef=none dyn=up name="Tenor"
V:BB gstem=up stem=down name="Brass Bass" sname="ABCD-C" transpose=-1  octave=-1 clef=bass
V:BC gstem=up stem=down name="Brass Chord" sname="ABCD-D" transpose=-1
V:BD gstem=up stem=down name="Brass Chord 2" sname="ABCD-B" transpose=-1
V:P gstem=up stem=down name="Piano" octave=-1
%%MIDI gracedivider 4
%%MIDI gchord
%%MIDI beatstring 
% %alignbars 80
%%score {M}
%%MIDI program 109 #bagpipes
%%MIDI vol 100
K: Dmaj
[V:M]|:{g}A{d}A{e}A {g}cac|{g}B{d}B{e}B {g}ca{g}a|{g}A{d}A{e}A {g}cac|Ba{g}a fec| $
[V:M]|{g}A{d}A{e}A {g}cac|{g}B{d}B{e}B {g}ca{g}a|{g}a2e {g}fec|{g}B{d}B{e}B {g}ca{g}a:| $
[V:M]|:fa{g}a ea{g}a|{g}ca{g}a Aa{g}a|fa{g}a ea{g}a|{g}ca{g}a Ba{g}a| $
[V:M]|fa{g}a ea{g}a|{g}ca{g}a Aa{g}a|{g}a2e {g}fec|{g}B{d}B{e}B {g}ca{g}a:| $
[V:M]|:A{d}A{e}A {g}ca{g}a|B{d}B{e}B {g}ca{g}a|A{d}A{e}A {g}ca{g}a|Ba{g}a ca{g}a| $
[V:M]|A{d}A{e}A {g}ca{g}a|B{d}B{e}B {g}ca{g}a|{g}a2e {g}fec|{g}B{d}B{e}B {g}ca{g}a:| $
[V:M]|:[1fa{g}a ea{g}a|ca{g}a Ba{g}a|fa{g}a ea{g}a|ca{g}a ea{g}a| $
[V:M]|[2fa{g}a ea{g}a|ca{g}a Ba{g}a|fa{g}a ea{g}a|cad aea| $
[V:M]|fa{g}a ea{g}a|{g}ca{g}a Ba{g}a|{g}a2e {g}fec|{g}B{d}B{e}B {g}ca{g}a:| $

